X:1
T:Un bon vieillard
T:Claude Gervaise
T:Source : Livre VII de chansons nouvelles à 4---Paris---N.du Chemin---1550. Editor : André Vierendeels (28/01/18). Notes : Original clefs : C2, C3, C3, F4 Original note values have been halved Editorial accidentals above the stave
T:Un bon vieillard
T:©
T:©
T:©
T:©
T:©
T:©
T:©
T:©
C:Claude Gervaise
Z:©
%%score [ 1 [ 2 3 ] 4 ]
L:1/8
Q:1/4=120
M:2/2
K:F
V:1 treble nm="Alto" snm="A"
V:2 treble-8 nm="Tenor 1" snm="T 1"
V:3 treble-8 nm="Tenor 2" snm="T 2"
V:4 bass nm="Bass" snm="B"
V:1
 D2 DD G2 G2 | FEFG A2 B2 | A2 G2 FABB | AG A2 z2 z G | F2 F2 G3 G | B2 B2 AAFG | AG B2 AG G2- | %7
w: Un bon vieil- lard qui|n'a- * * * * voit|que le bec, qui n'a- voit|que le bec, se|trou- vant court, se|trou- vant court pres d'u- ne|ieu- ne da- * * *|
w: De de- sir prou: mais|de _ _ _ _ ce-|la à sec, mais de ce-|la à sec, ne|suis- ie pas, ne|suis- ie pas (ce dict il)|bien in- fa- * * *|
[M:2/4] G2 F2 |1 G4 :|2[M:2/2] G4 z2 B2 || B2 B2 A4 | z2 A2 c3 B | A2 GF G2 A2 | F2 B3 A A2- | %14
w: |me,|me, pour|tout paye- ment|luy chan- te|ces- * * * te|ga- * * *|
w: |me,||||||
 A2 G2 A2 z F | G2 FF B2 AA | d2 c2 z BAF | GA F2 z Gcc | B2 A2 GGGD | F2 G2 FFFF | D2 B2 BBFF | %21
w: * * me, il|tas- te, il mon- te, il|mon- te as- sez pour|l'es- ca- cher, as- sez pour|l'es- ca- cher, as- sez pour|l'es- ca- cher plus de cent|fois, plus de cent fois, et|
w: |||||||
 BABc d3 c/B/ | A c2 B2 A/G/ A2 | B2 F2 G2 G2 | F3 G/A/ B2 B2 | A2 F2 A2 B2 | G4 F4 | z2 G2 F2 D2 | %28
w: ne _ _ _ _ _ _|_ peult des- * * las-|cher, dont se moc-|quant _ _ _ dict|la da- me fas-|ché- e,|dict la da-|
w: |||||||
 F2 F2 E2 D2- | D2 C2 D4- | D4 z2 D2 | G2 G2 FEDC | B,CDE F2 F2 | F3 G AB c2- | c2 B4 A2 | B8 |: %36
w: me fas- * ché-|* * e,|_ l'es-|prit est prompt _ _ _|_ _ _ _ _ mais|in- fir- m'est _ _|_ _ la|chair,|
w: ||||||||
 z2 B2 A2 G2 | FFGA BA G2 | F2 z G ABcc | B2 AF GABc | BA/G/ A2 GcBB |[M:2/4] AA G2- |1 %42
w: no- stre cu-|ré sou- vent m'en a pre- ché-|e, sou- vent m'en a pre-|ché- e, sou- vent m'en a pre-|ché- * * * e, sou- vent m'en|a- pre- ché-|
w: ||||||
[M:2/2] GF/E/ F2 G4 :|2[M:2/4]"^#""^#" GF/E/ F2 ||[M:2/2] G8 |] %45
w: * * * * e,|(ché)- * * *|e.|
w: |||
V:2
 z4 d2 dd | d2 d2 c2 f2 | fe dc d2 z d | defd eddc | d2 d2 d2 c2 | Bc de f2 d2 | e2 f2 fe dc | %7
w: Un bon vieil-|lard qui n'a- voit|que _ le _ bec, qui|n'a- voit que le bec, qui n'a- voit|que le bec, se|trou- * vant _ court pres|d'u- ne ieu- * ne _|
w: De de- sir|prou, mais de ce-|la _ à _ sec, mais|de ce- la à sec, ne suis- ie|pas, (ce dict il)|ne _ _ _ suis- ie|pas bien in- * * *|
[M:2/4] d4 |1 B4 :|2[M:2/2] B2 d2 d2 d2 || GABc de f2- | f2 c4 f2- | f2 ed e2 c2 | d3 e f4 | %14
w: da-|me,|me, pour tout paye-|ment _ _ _ _ _ _|_ luy chan-|* * * * te|cees- te ga-|
w: fa-|me,||||||
 d2 d2 ffdd | Bcdd G2 z A | FGAA Ddff | e f2 d e2 fc | f3 e dc d2- | d2 c2 d4 | f2 ff d2 d2 | %21
w: me, il tas- te'il mon- te'as-|sez pour l'es- ca- cher, as-|sez por l'es- ca- cher, as- sez pour|l'es- ca- cher, a- sez pour|l'es- * * * *|* ca- cher,|plus de cent fois, et|
w: |||||||
 g3 f/e/ f2 g2 | f2 f2 f2 f2 | fedc B2 G2 | A2 d2 d2 d2 | f2 f3 e d2- | d2 c2 d2 A2 | d6 d2 | %28
w: ne _ _ _ peult|des- la- cher, dont|se _ _ _ _ moc-|quant dict la da-|me fas- * ché-|* * e, dict|la da-|
w: |||||||
 d2 d2 cBAG | A2 A4 G2 | B4 A4 | z2 d2 f3 e | d2 cB c2 F2 | B2 B2 A2 f2 | f2 d2 f2 f2 | %35
w: me fas- ché- * * *|e, l'es- prit|est prompt,|l'es- prit est|prompt _ _ _ l'es-|prit est prompt: mais|in- fir- m'est la|
w: |||||||
 d2 f3 e d2 |: ccde f2 d2 | dc/B/ c2 d4 | z4 f2 e2 | d2 c2 z2 z c | defd e2 d2- | %41
w: chair, no- stre cu-|ré sou- vent m'en a pre-|ché- * * * e,|no- stre|cu- ré sou-|vent m'en a pre- ché- *|
w: ||||||
[M:2/4]"^-natural" dc/B/ c2 |1[M:2/2] d3 f e2 d2 :|2[M:2/4] d4 ||[M:2/2] B8 |] %45
w: |e, no- stre cu-|(ché)-|e.|
w: ||||
V:3
 z2 G2 GG B2- | B2 B2 A2 d2 | c2 B2 ADGG | FEDA BBAG | A2 A2 BAGF | G2 G2 FFAB | c2 d2 cBAG | %7
w: Un bon vieil- lard|_ qui n'a- voit|que le bec, qui n'a- voit|que le bec, qui n'a- voit que le|bec, se trou- * * *|* vant court pres d'u- ne|ieu- ne da- * * *|
w: De de- sir prou,|_ mais de ce-|la à sec, mais de ce-|la à sec, mais de ce- la à|sec, ne suis- * * *|* ie pas (ce dict il)|bien in fa- * * *|
[M:2/4] A4 |1 G4 :|2[M:2/2] G8 || z2 d2 d2 d2 | cBAG FGAB | c2 c2 c2 c2 | A2 d3 c BA | B4 AA B2 | %15
w: |me,|me,|pour tout paye-|ment _ _ _ _ _ _ _|_ luy chan- te|ces- te _ _ _|ga- me, il tas-|
w: |me,|||||||
 G2 z A d2 cF | B2 FA d2 c2 | z cdd cBAA | d3 c BABB | A2 G2 A4 | z4 B2 BB | GG d4 B2 | c2 d2 c4 | %23
w: te, il mon- te, il|tas- te, il mon- te|as- sez pour l'es- ca- cher, as-|sez pour l'es- ca- cher, pour|l'es- ca- cher,|plus de cent|fois, et ne peult|des- * las-|
w: ||||||||
 B2 B2 GABc | d2 d2 G4 | z2 d2 c2 B2 | B2 AG A4 | D2 B2 A2 FG | AF BA GFED | E4 D2 D2 | %30
w: cher, dont se _ _ _|_ moc- quant,|dict la da-|me fas- * ché-|e, la da- me _|_ _ fas- * * * * *|ché- e, l'es-|
w: |||||||
 G2 G2 F2 F2 | B2 B2 A4 | z4 z2 A2 | d2 d2 cBAG | A2 B2 c4 | B4 z2 B2 |: A2 G2 FFGG | %37
w: prit est prompt, l'es-|prit est prompt|mais|in- fir- m'est _ _ _|_ _ la|chair, no-|stre cu- ré sou- vent m'en|
w: |||||||
 DF E2 D2 z B | A2 G2 FFGA | BG A2 G4 | z2 z F GABG |[M:2/4] AF GA |1[M:2/2] BA/G/ A2 G3 B :|2 %43
w: a pre- ché- e, no-|stre cu- ré m'en a sou-|vent pre- ché- e,|no- stre cu- ré m'en|a sou- vent pre-|ché- * * * e, no-|
w: ||||||
[M:2/4] BA/G/ A2 ||[M:2/2] G8 |] %45
w: (ché)- * * *|e.|
w: ||
V:4
 z4 G,,2 G,,G,, | D,2 B,,2 F,2 B,,2 | F,2 G,2 D,2 z2 | z2 z D, G,G,F,E, | D,2 D,2 B,,2 C,2 | %5
w: Un bon vieil-|lard qui n'a- voit|que le bec,|qui n'a- voit que le|bec, se trou- vant|
w: De de- sir|prou, mais de ce-|la à sec,|mais de ce- la à|sec, ne suis- ie|
 G,,A,,B,,C, D,2 D,2 | C,2 B,,2 F,2 G,2 |[M:2/4] D,4 |1 G,,4 :|2[M:2/2] G,,4 z2 G,2 || %10
w: court _ _ _ _ pres|d'u- ne ieu- ne|da-|me,|me, pour|
w: pas _ _ _ _ (ce|dict il) bien in-|fa-|me,||
 G,2 G,2 D,C,D,E, | F,4 z2 F,2 | F,2 F,2 C,2 F,2- | F,E,D,C, B,,2 F,2 | G,4 D,2 z D, | %15
w: tout paye- ment _ _ _|_ luy|chan- te ces- te|_ _ _ _ _ _|ga- me, il|
w: |||||
"^b" E,2 D,2 z B,, F,2 | B,,2 z F, B,B, F,2 | z F,B,B, A,G, F,2 | z2 D,2 G,2 G,2 | %19
w: tas- te, il mon-|te, il mon- te'as- sez|as- sez poue l'es- ca- cher,|as- sez pour|
w: ||||
 F,2 E,2 D,2 D,2 | B,,2 B,,2 B,,4 | z2 B,2 B,B,G,G, | A,2 B,2 F,2 F,2 |"^b""^b" B,,2 B,,2 E,2 E,2 | %24
w: l'e- ca- cher plus|de cen fois,|plus de cen fois, et|ne peult des- la-|cher, dont se moc-|
w: |||||
 D,4 z2 G,2 | F,2 D,2 F,2 G,2 | E,4 D,4 | z2 G,,2 D,4- | D,2 B,,2 C,2 D,2 | A,,4 D,2 G,,2 | %30
w: quant, dict|la da- me fas-|ché- e,|dict la|_ da- me fas-|ché- e, l'es-|
w: ||||||
 G,,A,,B,,C, D,2 D,2 | G,,4 z2 D,2 | G,2 G,2 F,E,D,C, | B,,C,D,E, F,2 F,2 | F,2 G,2 F,2 F,2 | %35
w: prit _ _ _ _ est|prompt, l'es-|prit est promp _ t _|_ _ _ _ _ mais|in- fir- m'est la|
w: |||||
 B,,8 |: z4 z2 B,2 | A,2 G,2 F,F,G,G, | D,F, E,2 D,2 z C, | D,E,F,D, E,4 | D,4 z C,D,E, | %41
w: chair,|no-|stre cu- ré sou- vent m'en|a pre- ché- e, sou-|vent m'en a pre- ché-|e, sou- vent m'en|
w: ||||||
[M:2/4] F,D, E,2 |1[M:2/2] D,4 G,,4 :|2[M:2/4] D,4 ||[M:2/2] G,,8 |] %45
w: a pre- ché-|* e,|(ché)-|e.|
w: ||||

